X: 115
M: C
L: 1/8
K: A
E |\
|: E |\
|: d |\
c>deA GAFG | EADA B,BBd |\
c>deA fAeG | dcBA EAA :|
|: c |\

